assets/features/channel/southeast-asia/dana.svg

<svg width="80" height="80" viewBox="0 0 80 80" fill="none" xmlns="http://www.w3.org/2000/svg">
<rect width="80" height="80" rx="8" fill="#108DE8"/>
<path fill-rule="evenodd" clip-rule="evenodd" d="M38.4853 20.0726C31.8659 20.703 26.5073 24.2032 23.2556 29.6111C21.1487 33.1279 20.1532 37.2751 20.4519 41.5549C21.215 52.0058 30.1903 60.8475 41.6706 59.9351C51.9897 59.1057 60.4838 49.8327 59.6212 38.4363C59.3059 34.2559 57.846 30.8221 55.5234 27.7034C54.4616 26.2934 54.2625 26.2768 53.1676 25.1322C51.7906 23.7055 48.9039 22.0633 47.0624 21.3334C44.6071 20.3546 41.455 19.7906 38.4853 20.0726Z" fill="white"/>
<path fill-rule="evenodd" clip-rule="evenodd" d="M28.664 34.1727C28.4151 34.9026 28.5644 42.9481 28.5644 44.4411C28.5644 46.0502 28.2492 46.5645 30.7709 47.4271C37.4733 49.7163 44.0928 41.9528 50.7454 45.7848C51.0441 45.9673 51.4256 46.3322 51.5086 45.7516L51.5252 35.3837C51.5252 34.2723 51.6247 33.9239 50.8782 33.4097C44.9223 29.2625 38.4853 36.3624 32.4465 35.5662C30.2069 35.2676 29.2778 34.123 28.664 34.1727Z" fill="#108DE8"/>
</svg>

<svg xmlns="http://www.w3.org/2000/svg" width="80" height="80" fill="none" viewBox="0 0 80 80"><rect width="80" height="80" fill="#108de8" rx="8"/><path fill="#fff" fill-rule="evenodd" d="M38.485 20.073c-6.62.63-11.978 4.13-15.23 9.538-2.106 3.517-3.102 7.664-2.803 11.944.763 10.45 9.738 19.292 21.219 18.38 10.319-.83 18.813-10.102 17.95-21.499-.315-4.18-1.775-7.614-4.098-10.733-1.061-1.41-1.26-1.426-2.355-2.57-1.377-1.427-4.264-3.07-6.106-3.8-2.455-.978-5.607-1.542-8.577-1.26" clip-rule="evenodd"/><path fill="#108de8" fill-rule="evenodd" d="M28.664 34.173c-.249.73-.1 8.775-.1 10.268 0 1.61-.315 2.124 2.207 2.986 6.702 2.29 13.322-5.474 19.974-1.642.3.182.68.547.764-.033l.016-10.368c0-1.112.1-1.46-.647-1.974-5.956-4.147-12.393 2.952-18.431 2.156-2.24-.298-3.17-1.443-3.783-1.393" clip-rule="evenodd"/></svg>
